X:140
T:Lost lady found - Dingle
%%VWML:SBG-1-2-869-0
F:http://www.vwml.org/record/SBG/1/2/869
Z:Original Sibelius transcriptions by M. & S. Graebe
M:6/4
I:linebreak $
K:C
V:1 treble nm="P1"
V:1
 C/E/ | G A G F E G | c c c c2 c/d/ | e c e d B d | c A c G2 c/d/ |$ e c e d B d | c A c G2 G/F/ | %7
 E G c c e c | f d B c3 | %9

